src/section/form/title.svg

<svg width="876" height="59" viewBox="0 0 876 59" fill="none" xmlns="http://www.w3.org/2000/svg">
<path d="M362.717 20.951L362.458 21.21C364.493 22.69 366.713 25.317 367.379 27.648C371.449 30.016 373.928 21.839 362.717 20.951ZM361.015 17.621L361.348 18.657H372.522V17.621H361.015ZM360.423 28.499L360.756 29.572H373.632V28.499H360.423ZM365.64 28.499V44.076C365.64 44.52 365.492 44.742 364.937 44.742C364.197 44.742 361.052 44.52 361.052 44.52V45.038C362.68 45.297 363.42 45.778 363.901 46.407C364.382 47.036 364.53 48.035 364.567 49.33C369.081 48.96 369.71 46.962 369.71 44.187V28.499H365.64ZM372.226 28.499C372.004 30.423 371.486 33.975 371.042 36.047L371.412 36.306C373.003 34.752 375.075 32.125 376.259 30.386C376.999 30.349 377.406 30.238 377.702 29.942L373.928 26.353L371.782 28.499H372.226ZM370.894 17.621C370.154 19.323 368.415 22.172 367.12 23.874L367.453 24.133C369.932 23.023 373.225 21.062 375.075 19.508C375.852 19.434 376.259 19.397 376.555 19.064L372.707 15.401L370.45 17.621H370.894ZM375.149 17.806L375.445 18.879H394.574C395.092 18.879 395.499 18.694 395.573 18.287C393.945 16.844 391.281 14.735 391.281 14.735L388.876 17.806H375.149ZM379.515 28.536V29.609H390.615V28.536H379.515ZM379.515 34.086V35.122H390.615V34.086H379.515ZM379.515 39.636V40.672H390.578V39.636H379.515ZM383.067 17.806C382.993 19.508 382.845 22.135 382.697 23.541H383.4C385.065 22.209 387.1 19.767 388.543 17.806H383.067ZM385.509 41.856L385.213 42.152C387.322 43.78 390.06 46.555 391.207 48.96C395.462 50.884 397.349 42.707 385.509 41.856ZM376.999 23.097V42.707H377.628C379.441 42.707 381.18 41.745 381.18 41.301V24.17H390.43V23.097H381.365L376.999 21.321V23.097ZM388.654 23.097V42.152H389.357C390.837 42.152 392.872 41.301 392.909 41.005V24.688C393.538 24.54 393.982 24.281 394.167 24.059L390.245 21.025L388.321 23.097H388.654ZM380.847 41.597C379.182 43.965 375.519 47.11 372.263 48.812L372.522 49.293C376.74 48.516 381.846 46.592 384.362 44.705C384.991 44.853 385.398 44.816 385.583 44.483L380.847 41.597ZM433.868 16.178L427.985 14.55C427.023 20.507 425.025 26.76 422.879 30.83L423.397 31.126C427.208 27.833 430.279 22.986 432.425 16.992C433.276 16.992 433.72 16.659 433.868 16.178ZM437.494 21.691H437.901C437.457 35.085 436.643 42.707 435.015 44.113C434.608 44.483 434.238 44.631 433.572 44.631C432.647 44.631 430.316 44.446 428.725 44.335V44.853C430.316 45.186 431.611 45.704 432.203 46.37C432.758 46.999 432.906 47.998 432.906 49.33C435.2 49.33 436.828 48.775 438.197 47.369C440.491 45.112 441.416 38.341 441.897 23.43C442.785 23.319 443.266 23.06 443.599 22.764L439.751 19.36L437.494 21.691ZM439.936 21.691H428.762L428.244 22.764H439.936V21.691ZM428.244 27.87L427.837 28.055C429.169 30.497 430.501 33.864 430.575 36.75C434.275 40.228 438.271 32.384 428.244 27.87ZM425.025 24.466L420.215 21.21C418.587 24.91 413.666 31.496 410.262 33.753C409.818 34.049 408.856 34.234 408.856 34.234L410.669 38.933C411.631 38.6 412.408 37.231 412.667 34.826H410.669L410.706 35.27C415.405 32.717 421.473 27.574 423.915 24.392L422.805 24.54C423.952 25.132 424.766 24.873 425.025 24.466ZM420.918 17.14L415.738 14.365C414.924 17.362 412.038 22.764 409.966 24.577C409.633 24.799 408.782 25.021 408.782 25.021L410.669 29.683C411.594 29.276 412.371 27.907 412.519 25.576H410.484L410.521 26.02C413.74 24.022 417.921 19.915 419.919 17.214L418.735 17.399C419.956 17.88 420.696 17.584 420.918 17.14ZM412.889 39.34L412.371 39.303C412.371 41.301 410.965 43.484 409.892 44.335C408.856 45.038 408.227 46.222 408.782 47.406C409.448 48.738 411.483 48.812 412.371 47.776C413.666 46.333 414.184 43.373 412.889 39.34ZM420.03 38.045L419.623 38.23C420.77 39.895 421.806 42.448 421.88 44.594C425.025 47.332 428.503 40.783 420.03 38.045ZM416.071 38.674L415.627 38.822C416.034 40.857 416.145 43.558 415.664 45.889C418.291 49.256 422.842 43.558 416.071 38.674ZM419.364 29.868L418.957 30.053C419.993 31.866 421.14 34.567 421.251 36.824C424.322 39.599 427.911 33.383 419.364 29.868ZM409.781 34.271L411.15 38.304C416.071 36.639 420.326 34.9 422.583 33.938L422.546 33.457C417.255 33.864 412.001 34.197 409.781 34.271ZM409.226 25.058L410.78 29.017C414.776 27.685 418.291 26.316 420.03 25.502V24.984C415.664 25.095 411.224 25.132 409.226 25.058ZM466.317 27.944V28.98H481.487V27.944H466.317ZM465.244 23.726V30.497H465.836C467.538 30.497 469.425 29.609 469.425 29.276V24.762H481.487V23.726H469.647L465.244 21.987V23.726ZM478.675 23.726V30.053H479.415C480.747 30.053 482.893 29.35 482.93 29.054V25.317C483.559 25.169 483.966 24.91 484.151 24.651L480.192 21.765L478.342 23.726H478.675ZM464.245 34.752V35.788H483.448V34.752H464.245ZM464.245 38.304V39.377H483.448V38.304H464.245ZM464.245 41.93V42.966H483.448V41.93H464.245ZM481.191 31.2V43.817H481.931C483.263 43.817 485.409 43.04 485.446 42.781V32.828C486.112 32.717 486.593 32.384 486.778 32.125L482.782 29.128L480.821 31.2H481.191ZM462.654 31.2V44.594H463.283C465.022 44.594 466.872 43.669 466.872 43.262V32.236H482.893V31.2H467.131L462.654 29.424V31.2ZM469.351 42.559C466.983 44.816 461.951 47.517 457.141 48.812L457.252 49.33C462.728 48.997 468.463 47.702 471.867 45.926C472.977 46.185 473.643 46.037 473.976 45.667L469.351 42.559ZM475.567 44.113L475.456 44.594C480.118 45.63 483.411 47.406 485.187 48.738C489.331 51.55 497.027 43.78 475.567 44.113ZM461.174 20.47V21.506H487.777V20.47H461.174ZM461.174 18.509C461.359 20.359 460.138 22.061 458.991 22.727C457.77 23.245 456.882 24.207 457.252 25.613C457.659 27.056 459.287 27.463 460.582 26.834C462.469 25.909 463.653 22.801 461.692 18.472L461.174 18.509ZM485.298 20.47C485.15 21.691 484.78 23.763 484.41 24.984L484.743 25.243C486.371 24.577 488.628 23.319 489.886 22.431C490.663 22.394 491.033 22.283 491.292 21.95L487.259 18.102L484.891 20.47H485.298ZM471.793 14.55V21.025H476.122V15.956C477.047 15.845 477.306 15.475 477.38 15.031L471.793 14.55ZM463.209 14.809L462.876 15.031C464.06 16.252 465.244 18.287 465.429 20.1C468.944 22.653 472.385 15.845 463.209 14.809ZM480.636 14.809C480.081 16.696 479.082 19.471 478.231 21.247H478.749C480.895 20.063 483.559 18.287 485.15 17.066C485.964 17.103 486.408 16.807 486.593 16.326L480.636 14.809ZM509.163 16.696V26.612C509.163 34.086 508.793 42.337 504.575 48.96L504.982 49.256C513.048 43.151 513.566 33.679 513.566 26.612V17.066H514.232L509.163 15.253V16.696ZM532.066 17.066H532.436V25.391H533.139C534.471 25.391 536.617 24.725 536.654 24.503V18.805C537.394 18.657 537.912 18.324 538.171 18.028L533.99 14.92L532.066 17.066ZM535.248 22.949H511.568V23.985H535.248V22.949ZM534.841 17.066H511.346V18.102H534.841V17.066ZM514.269 33.827L516.082 37.675C524.074 36.232 530.438 34.863 534.138 33.901L534.101 33.346C525.702 33.642 517.784 33.864 514.269 33.827ZM527.256 28.24V27.833H521.558C520.485 29.424 517.451 32.532 515.083 33.457C514.713 33.605 513.899 33.716 513.899 33.716L515.749 38.452C516.711 38.045 517.488 36.565 517.636 34.197H515.712V34.604C519.375 33.346 524.555 30.571 527.256 28.24ZM527.922 30.016L527.663 30.312C530.068 31.866 533.028 34.678 534.286 37.157C538.689 39.081 540.354 30.534 527.922 30.016ZM535.544 43.743L533.324 46.74H510.791L511.087 47.813H538.541C539.059 47.813 539.466 47.628 539.54 47.221C538.097 45.778 535.544 43.743 535.544 43.743ZM532.991 38.008L530.808 40.709H513.603L513.899 41.745H535.951C536.469 41.745 536.839 41.56 536.95 41.153C535.433 39.821 532.991 38.008 532.991 38.008ZM534.36 24.947L532.103 27.685H513.936L514.269 28.721H537.431C537.986 28.721 538.356 28.536 538.467 28.129C536.876 26.797 534.36 24.947 534.36 24.947ZM528.181 36.898L522.742 36.454V47.258H526.96V37.86C527.848 37.712 528.107 37.379 528.181 36.898Z" fill="url(#paint0_linear_124_1631)"/>
<path d="M291.56 28.999H0V29.8598H291.56V28.999Z" fill="url(#paint1_linear_124_1631)"/>
<path d="M875.79 28.999H604.42V29.8598H875.79V28.999Z" fill="url(#paint2_linear_124_1631)"/>
<path d="M559.39 58.352V58.8584H340.96C326.73 58.8584 315.19 47.1717 315.19 32.761V26.0974C315.19 11.6866 326.73 0 340.96 0H559.39C573.62 0 585.16 11.6866 585.16 26.0974V32.761C585.16 47.1717 573.62 58.8584 559.39 58.8584V57.8456C573.07 57.8254 584.14 46.6148 584.16 32.761V26.0974C584.14 12.2436 573.07 1.03296 559.39 1.0127H340.96C327.28 1.03296 316.21 12.2436 316.19 26.0974V32.761C316.21 46.6148 327.28 57.8254 340.96 57.8456H559.39V58.352Z" fill="url(#paint3_linear_124_1631)"/>
<defs>
<linearGradient id="paint0_linear_124_1631" x1="359" y1="20.7237" x2="541" y2="20.7237" gradientUnits="userSpaceOnUse">
<stop stop-color="#F3EC88"/>
<stop offset="0.142857" stop-color="#D19E33"/>
<stop offset="0.285714" stop-color="#F3EC88"/>
<stop offset="0.428571" stop-color="#D19E33"/>
<stop offset="0.571429" stop-color="#F3EC88"/>
<stop offset="0.714286" stop-color="#D19E33"/>
<stop offset="0.857143" stop-color="#F3EC88"/>
<stop offset="1" stop-color="#D19E33"/>
</linearGradient>
<linearGradient id="paint1_linear_124_1631" x1="-4.7036" y1="20.6483" x2="286.856" y2="20.6483" gradientUnits="userSpaceOnUse">
<stop stop-color="#F3EC88"/>
<stop offset="1" stop-color="#D19E33"/>
</linearGradient>
<linearGradient id="paint2_linear_124_1631" x1="609.644" y1="39.5113" x2="881.004" y2="39.5113" gradientUnits="userSpaceOnUse">
<stop stop-color="#F3EC88"/>
<stop offset="1" stop-color="#D19E33"/>
</linearGradient>
<linearGradient id="paint3_linear_124_1631" x1="310.59" y1="17.046" x2="581.57" y2="17.046" gradientUnits="userSpaceOnUse">
<stop stop-color="#F3EC88"/>
<stop offset="1" stop-color="#D19E33"/>
</linearGradient>
</defs>
</svg>

<svg width="876" height="59" viewBox="0 0 876 59" fill="url(#SVGID_1_)" xmlns="http://www.w3.org/2000/svg">
<linearGradient id="SVGID_1_" gradientUnits="userSpaceOnUse" x1="-6.9578" y1="29.4292" x2="882.9287" y2="29.4292">
	<stop  offset="0" style="stop-color:#F3EC88"/>
	<stop  offset="0.1429" style="stop-color:#D19E33"/>
	<stop  offset="0.2857" style="stop-color:#F3EC88"/>
	<stop  offset="0.4286" style="stop-color:#D19E33"/>
	<stop  offset="0.5714" style="stop-color:#F3EC88"/>
	<stop  offset="0.7143" style="stop-color:#D19E33"/>
	<stop  offset="0.8571" style="stop-color:#F3EC88"/>
	<stop  offset="1" style="stop-color:#D19E33"/>
</linearGradient>
<path class="st0" d="M362.7,21l-0.3,0.3c2,1.5,4.3,4.1,4.9,6.4C371.4,30,373.9,21.8,362.7,21z M361,17.6l0.3,1h11.2v-1H361z
	 M360.4,28.5l0.3,1.1h12.9v-1.1H360.4z M365.6,28.5v15.6c0,0.4-0.1,0.7-0.7,0.7c-0.7,0-3.9-0.2-3.9-0.2V45c1.6,0.3,2.4,0.7,2.8,1.4
	c0.5,0.6,0.6,1.6,0.7,2.9c4.5-0.4,5.1-2.4,5.1-5.1V28.5H365.6z M372.2,28.5c-0.2,1.9-0.7,5.5-1.2,7.5l0.4,0.3
	c1.6-1.6,3.7-4.2,4.8-5.9c0.7,0,1.1-0.1,1.4-0.4l-3.8-3.6l-2.1,2.1H372.2z M370.9,17.6c-0.7,1.7-2.5,4.6-3.8,6.3l0.3,0.3
	c2.5-1.1,5.8-3.1,7.6-4.6c0.8-0.1,1.2-0.1,1.5-0.4l-3.8-3.7l-2.3,2.2H370.9z M375.1,17.8l0.3,1.1h19.1c0.5,0,0.9-0.2,1-0.6
	c-1.6-1.4-4.3-3.6-4.3-3.6l-2.4,3.1H375.1z M379.5,28.5v1.1h11.1v-1.1H379.5z M379.5,34.1v1h11.1v-1H379.5z M379.5,39.6v1h11.1v-1
	H379.5z M383.1,17.8c-0.1,1.7-0.2,4.3-0.4,5.7h0.7c1.7-1.3,3.7-3.8,5.1-5.7H383.1z M385.5,41.9l-0.3,0.3c2.1,1.6,4.8,4.4,6,6.8
	C395.5,50.9,397.3,42.7,385.5,41.9z M377,23.1v19.6h0.6c1.8,0,3.6-1,3.6-1.4V24.2h9.2v-1.1h-9.1l-4.4-1.8V23.1z M388.7,23.1v19.1
	h0.7c1.5,0,3.5-0.9,3.6-1.1V24.7c0.6-0.1,1.1-0.4,1.3-0.6l-3.9-3l-1.9,2.1H388.7z M380.8,41.6c-1.7,2.4-5.3,5.5-8.6,7.2l0.3,0.5
	c4.2-0.8,9.3-2.7,11.8-4.6c0.6,0.1,1,0.1,1.2-0.2L380.8,41.6z M433.9,16.2l-5.9-1.6c-1,6-3,12.2-5.1,16.3l0.5,0.3
	c3.8-3.3,6.9-8.1,9-14.1C433.3,17,433.7,16.7,433.9,16.2z M437.5,21.7h0.4c-0.4,13.4-1.3,21-2.9,22.4c-0.4,0.4-0.8,0.5-1.4,0.5
	c-0.9,0-3.3-0.2-4.8-0.3v0.5c1.6,0.3,2.9,0.9,3.5,1.5c0.6,0.6,0.7,1.6,0.7,3c2.3,0,3.9-0.6,5.3-2c2.3-2.3,3.2-9,3.7-23.9
	c0.9-0.1,1.4-0.4,1.7-0.7l-3.8-3.4L437.5,21.7z M439.9,21.7h-11.2l-0.5,1.1h11.7V21.7z M428.2,27.9l-0.4,0.2
	c1.3,2.4,2.7,5.8,2.7,8.7C434.3,40.2,438.3,32.4,428.2,27.9z M425,24.5l-4.8-3.3c-1.6,3.7-6.5,10.3-10,12.5
	c-0.4,0.3-1.4,0.5-1.4,0.5l1.8,4.7c1-0.3,1.7-1.7,2-4.1h-2l0,0.4c4.7-2.6,10.8-7.7,13.2-10.9l-1.1,0.1C424,25.1,424.8,24.9,425,24.5
	z M420.9,17.1l-5.2-2.8c-0.8,3-3.7,8.4-5.8,10.2c-0.3,0.2-1.2,0.4-1.2,0.4l1.9,4.7c0.9-0.4,1.7-1.8,1.9-4.1h-2l0,0.4
	c3.2-2,7.4-6.1,9.4-8.8l-1.2,0.2C420,17.9,420.7,17.6,420.9,17.1z M412.9,39.3l-0.5,0c0,2-1.4,4.2-2.5,5c-1,0.7-1.7,1.9-1.1,3.1
	c0.7,1.3,2.7,1.4,3.6,0.4C413.7,46.3,414.2,43.4,412.9,39.3z M420,38l-0.4,0.2c1.1,1.7,2.2,4.2,2.3,6.4C425,47.3,428.5,40.8,420,38z
	 M416.1,38.7l-0.4,0.1c0.4,2,0.5,4.7,0,7.1C418.3,49.3,422.8,43.6,416.1,38.7z M419.4,29.9l-0.4,0.2c1,1.8,2.2,4.5,2.3,6.8
	C424.3,39.6,427.9,33.4,419.4,29.9z M409.8,34.3l1.4,4c4.9-1.7,9.2-3.4,11.4-4.4l0-0.5C417.3,33.9,412,34.2,409.8,34.3z M409.2,25.1
	l1.6,4c4-1.3,7.5-2.7,9.2-3.5V25C415.7,25.1,411.2,25.1,409.2,25.1z M466.3,27.9v1h15.2v-1H466.3z M465.2,23.7v6.8h0.6
	c1.7,0,3.6-0.9,3.6-1.2v-4.5h12.1v-1h-11.8l-4.4-1.7V23.7z M478.7,23.7v6.3h0.7c1.3,0,3.5-0.7,3.5-1v-3.7c0.6-0.1,1-0.4,1.2-0.7
	l-4-2.9l-1.8,2H478.7z M464.2,34.8v1h19.2v-1H464.2z M464.2,38.3v1.1h19.2v-1.1H464.2z M464.2,41.9v1h19.2v-1H464.2z M481.2,31.2
	v12.6h0.7c1.3,0,3.5-0.8,3.5-1v-10c0.7-0.1,1.1-0.4,1.3-0.7l-4-3l-2,2.1H481.2z M462.7,31.2v13.4h0.6c1.7,0,3.6-0.9,3.6-1.3v-11h16
	v-1h-15.8l-4.5-1.8V31.2z M469.4,42.6c-2.4,2.3-7.4,5-12.2,6.3l0.1,0.5c5.5-0.3,11.2-1.6,14.6-3.4c1.1,0.3,1.8,0.1,2.1-0.3
	L469.4,42.6z M475.6,44.1l-0.1,0.5c4.7,1,8,2.8,9.7,4.1C489.3,51.5,497,43.8,475.6,44.1z M461.2,20.5v1h26.6v-1H461.2z M461.2,18.5
	c0.2,1.8-1,3.6-2.2,4.2c-1.2,0.5-2.1,1.5-1.7,2.9c0.4,1.4,2,1.8,3.3,1.2c1.9-0.9,3.1-4,1.1-8.4L461.2,18.5z M485.3,20.5
	c-0.1,1.2-0.5,3.3-0.9,4.5l0.3,0.3c1.6-0.7,3.9-1.9,5.1-2.8c0.8,0,1.1-0.1,1.4-0.5l-4-3.8l-2.4,2.4H485.3z M471.8,14.6V21h4.3V16
	c0.9-0.1,1.2-0.5,1.3-0.9L471.8,14.6z M463.2,14.8l-0.3,0.2c1.2,1.2,2.4,3.3,2.6,5.1C468.9,22.7,472.4,15.8,463.2,14.8z M480.6,14.8
	c-0.6,1.9-1.6,4.7-2.4,6.4h0.5c2.1-1.2,4.8-3,6.4-4.2c0.8,0,1.3-0.3,1.4-0.7L480.6,14.8z M509.2,16.7v9.9c0,7.5-0.4,15.7-4.6,22.3
	l0.4,0.3c8.1-6.1,8.6-15.6,8.6-22.6v-9.5h0.7l-5.1-1.8V16.7z M532.1,17.1h0.4v8.3h0.7c1.3,0,3.5-0.7,3.5-0.9v-5.7
	c0.7-0.1,1.3-0.5,1.5-0.8l-4.2-3.1L532.1,17.1z M535.2,22.9h-23.7v1h23.7V22.9z M534.8,17.1h-23.5v1h23.5V17.1z M514.3,33.8l1.8,3.8
	c8-1.4,14.4-2.8,18.1-3.8l0-0.6C525.7,33.6,517.8,33.9,514.3,33.8z M527.3,28.2v-0.4h-5.7c-1.1,1.6-4.1,4.7-6.5,5.6
	c-0.4,0.1-1.2,0.3-1.2,0.3l1.9,4.7c1-0.4,1.7-1.9,1.9-4.3h-1.9v0.4C519.4,33.3,524.6,30.6,527.3,28.2z M527.9,30l-0.3,0.3
	c2.4,1.6,5.4,4.4,6.6,6.8C538.7,39.1,540.4,30.5,527.9,30z M535.5,43.7l-2.2,3h-22.5l0.3,1.1h27.5c0.5,0,0.9-0.2,1-0.6
	C538.1,45.8,535.5,43.7,535.5,43.7z M533,38l-2.2,2.7h-17.2l0.3,1H536c0.5,0,0.9-0.2,1-0.6C535.4,39.8,533,38,533,38z M534.4,24.9
	l-2.3,2.7h-18.2l0.3,1h23.2c0.6,0,0.9-0.2,1-0.6C536.9,26.8,534.4,24.9,534.4,24.9z M528.2,36.9l-5.4-0.4v10.8h4.2v-9.4
	C527.8,37.7,528.1,37.4,528.2,36.9z M291.6,29H0v0.9h291.6V29z M875.8,29H604.4v0.9h271.4V29z M559.4,58.4v0.5H341
	c-14.2,0-25.8-11.7-25.8-26.1v-6.7C315.2,11.7,326.7,0,341,0h218.4c14.2,0,25.8,11.7,25.8,26.1v6.7c0,14.4-11.5,26.1-25.8,26.1v-1
	c13.7,0,24.8-11.2,24.8-25.1v-6.7c0-13.9-11.1-25.1-24.8-25.1H341c-13.7,0-24.8,11.2-24.8,25.1v6.7c0,13.9,11.1,25.1,24.8,25.1
	h218.4V58.4z"/>
</svg>
